X:273
T:Reel 273
M:4/4
K:Gmaj
L:1/8
gfdc  (3ABc GF|AFDC DEFG|gfde fdec|| (3def fd cAAB:||2dggf gbag|f2fe fdce|dcde f2ef|g2 (3gfg agfd|cAAG AGAc|f2fd gfge|fdgf fdec|cAGA GABc|dgge fdcA|
